T: Glenbeigh, The
M: 4/4
L: 1/8
K: Gmaj
GABc dg (3fga | g2 B2 d3 B | ceAB c2 cA | BdGA BcBA |GABc dg (3fga | g2 B2 d3 B | ceAB cAFG |[1 AGGF G2 :|[2 AGGF GA ||d2 b2 c2 a2 | Bggf gdBG | F2 e2- edcA | GBAc Bd (3B=c^c |d2 b2 c2 a2 | Bggf gdBG | FGAB cAFG |[1 AGGF GA :|[2 AGGF G2 |]
